X: 830
T: Albert Farmer's Bonfire
R: barndance
M: 4/4
K: Dmajor
|:A>d|f2 f>d A2 F>A|G>AG>F E2 E2|e2 (3fed c>AB>c|dAfd A2 de|
f2- f>d A2 (3FGA|G2 GF E4|e>fe>d c2 (3ABc|1 d2 A2 D2:|2 d2 f2 d2||
|:(3bag|f2 f>d f2 A>f|g2 g>f e2 e2|g>f (3fed c>A (3ABc|
[1 d>fA>d f>Aa>g|f2- f>d f>Aa>f|g>fe>d c4|gfed cABc|d2 d2 d2:|
[2 d>fA>d F>AA>d|f2 f>d A2 F2|G>AG>F E2 E2|c>ee>d cABc|.d2 .A2 .D2||

